assets/images/item_1866.svg

<?xml version="1.0" standalone="no"?><!DOCTYPE svg PUBLIC "-//W3C//DTD SVG 1.1//EN" "http://www.w3.org/Graphics/SVG/1.1/DTD/svg11.dtd"><svg xmlns="http://www.w3.org/2000/svg" version="1.1" width="74px" height="160.2px" viewBox="0 -12 74 160.2" style="top:-12px"><desc>9</desc><defs/><g id="Polygon12894"><path d="m7.8 79.9c14.3 0 27.9-10.6 30.3-27.1c-4.5 5.2-10.6 7.4-16.3 7.4c-10.1 0-19.7-6.9-19.7-20.2c0-11.7 7.3-22.6 23.4-22.6c17.8 0 27.3 13.3 27.3 28.6c0 18.3-13.6 39.3-40.4 39.3c.02.02-4.6 0-4.6 0c0 0 .03-5.38 0-5.4zm30.6-37.4C38.4 34 34.9 22 26.3 22c-6.5 0-10.1 6.8-10.1 14.4c0 9.2 5.2 15 11.8 15c3.1 0 6.5-1.3 9.8-3.9c.5-1.3.6-3.1.6-5z" stroke="none" fill="#000"/></g></svg>

<?xml version="1.0" standalone="no"?><!DOCTYPE svg PUBLIC "-//W3C//DTD SVG 1.1//EN" "http://www.w3.org/Graphics/SVG/1.1/DTD/svg11.dtd"><svg xmlns="http://www.w3.org/2000/svg" version="1.1" width="74px" height="160.2px" viewBox="0 -12 74 160.2" style="top:-12px">  <desc>9</desc>  <defs/>  <g id="Polygon12894">    <path d="M 7.8 79.9 C 22.1 79.9 35.7 69.3 38.1 52.8 C 33.6 58 27.5 60.2 21.8 60.2 C 11.7 60.2 2.1 53.3 2.1 40 C 2.1 28.3 9.4 17.4 25.5 17.4 C 43.3 17.4 52.8 30.7 52.8 46 C 52.8 64.3 39.2 85.3 12.4 85.3 C 12.42 85.32 7.8 85.3 7.8 85.3 C 7.8 85.3 7.83 79.92 7.8 79.9 Z M 38.4 42.5 C 38.4 34 34.9 22 26.3 22 C 19.8 22 16.2 28.8 16.2 36.4 C 16.2 45.6 21.4 51.4 28 51.4 C 31.1 51.4 34.5 50.1 37.8 47.5 C 38.3 46.2 38.4 44.4 38.4 42.5 Z " stroke="none" fill="#000"/>  </g></svg>
